src/symbolic/apps/preferences-system-network-proxy-symbolic.svg

<svg xmlns="http://www.w3.org/2000/svg" width="16" height="16"><path d="M13 .75V2H6S4 2 4 4v7H3V9.75L0 12.5l3 2.75V14h7s2 0 2-2V5h1v1.25l3-2.75zM6 4h4v8H6zm1 1v2h2V5z" fill="#444"/></svg>

<svg xmlns="http://www.w3.org/2000/svg" width="16" height="16" version="1.1">
 <path style="fill:#444444" d="M 13,0.75 V 2 H 6 C 6,2 4,2 4,4 V 11 H 3 V 9.75 L 0,12.5 3,15.25 V 14 H 10 C 10,14 12,14 12,12 V 5 H 13 V 6.25 L 16,3.5 Z M 6,4 H 10 V 12 H 6 Z M 7,5 V 7 H 9 V 5 Z"/>
</svg>
